www/assets/icons/arrow_range_outline.svg

<svg width="24" height="24" viewBox="0 0 24 24" xmlns="http://www.w3.org/2000/svg" fill='currentColor'><mask id="mask0_32484_479" style="mask-type:alpha" maskUnits="userSpaceOnUse" x="0" y="0" width="24" height="24"><rect width="24" height="24"/></mask><g mask="url(#mask0_32484_479)"><path d="M7 17L2 12L7 7L8.4 8.4L5.825 11H18.175L15.6 8.4L17 7L22 12L17 17L15.6 15.6L18.175 13H5.825L8.4 15.6L7 17Z"/></g></svg>

<svg xmlns="http://www.w3.org/2000/svg" width="24" height="24" viewBox="0 0 24 24" fill='currentColor'><mask id="a" width="24" height="24" x="0" y="0" maskUnits="userSpaceOnUse" style="mask-type:alpha"><path d="M0 0h24v24H0z"/></mask><g mask="url(#a)"><path d="m7 17-5-5 5-5 1.4 1.4L5.825 11h12.35L15.6 8.4 17 7l5 5-5 5-1.4-1.4 2.575-2.6H5.825L8.4 15.6z"/></g></svg>
